!!!COM: Bach, Johann Sebastian
!!!OTL@@DE: 327. Jesu, nun sei gepreiset
!!!OTL@EN: Jesus now be praised
!!!SCA: BWV 190.7
**kern	**kern	**kern	**kern
*staff2	*staff2	*staff1	*staff1
*Iorgan	*Iorgan	*Iorgan	*Iorgan
*>[A,A,B,B,C,C,D]	*>[A,A,B,B,C,C,D]	*>[A,A,B,B,C,C,D]	*>[A,A,B,B,C,C,D]
*>norep[A,B,C,D]	*>norep[A,B,C,D]	*>norep[A,B,C,D]	*>norep[A,B,C,D]
*>A	*>A	*>A	*>A
!bass	!tenor	!alto	!sprno
*clefF4	*clefF4	*clefG2	*clefG2
*k[f#c#]	*k[f#c#]	*k[f#c#]	*k[f#c#]
*met(C)	*met(C)	*met(C)	*met(C)
*M4/4	*M4/4	*M4/4	*M4/4
*MM80	*MM80	*MM80	*MM80
4D\	4d/	4a\	4ff#/
=1	=1	=1	=1
4d/	4d\	4a\	4ff#/
4A/	4cn\	4f#\	4dd/
4B/	4B\	4g\	4ee/
4cn/	4A\	4a\	4ff#/
=2	=2	=2	=2
2G\	2d/	2b\	2gg/
4Cn;\	4cn;/	4g;\	4ee;/
4B\	4c/	4g\	4ee/
=3	=3	=3	=3
4A#\	4c#/	4f#\	4ee/
4B\	4d/	4f#\	4dd/
4G\	4B/	4e\	4dd/
4An\	4e/	4a\	4cc#/
=4	=4	=4	=4
2.D;\	2.f#;/	2.a;\	2.dd;/
4A\	4c#/	4a\	4ee/
=5	=5	=5	=5
4G#\	8B/L	4e\	4ee/
.	8c#/J	.	.
4E\	4d/	4g#\	4ee/
4A\	4c#/	4a\	4ee/
4F#\	4c#/	4a#\	4ff#/
=6	=6	=6	=6
2B\	8d/L	2b\	2dd/
.	8e/J	.	.
.	4f#/	.	.
4B;\	4f#;/	4b;\	4dd;/
4B\	4B/	4f#\	4dd/
=7	=7	=7	=7
4E\	4G/	4e\	4cc#/
4D\	8A/L	4f#\	4dd/
.	8d/J	.	.
4A\	4d/	8g\L	4ee/
.	.	16a\L	.
.	.	16b\JJ	.
4AA\	4c#/	8a\L	4ee/
.	.	8e\J	.
=8	=8	=8	=8
2.D;\	2.A;/	2.f#;\	2.dd;/
=:|!|:	=:|!|:	=:|!|:	=:|!|:
!!linebreak: 2
*>B	*>B	*>B	*>B
4AA\	4A/	4e\	4cc#/
=9	=9	=9	=9
4A\	4e/	4a\	4cc#/
4G\	4e/	4a\	4cc#/
4F#\	4f#/	4a\	4cc#/
4A\	8g/L	4a\	4cc#/
.	8e/J	.	.
=10	=10	=10	=10
2D\	2f#/	2a\	2dd/
4D;\	4f#;/	4a;\	4dd;/
=:|!|:	=:|!|:	=:|!|:	=:|!|:
*>C	*>C	*>C	*>C
4D\	4d/	4a\	4ff#/
=11	=11	=11	=11
4d/	4d\	4a\	4ff#/
4A/	4cn\	4f#\	4dd/
4B/	4B\	4g\	4ee/
4cn/	4A\	4a\	4ff#/
=12	=12	=12	=12
4B\	4d/	4g\	2gg/
4c#\	4A/	4a\	.
4d;\	4d;/	4a;\	4ff#;/
4D#\	4f#/	4b\	4ff#/
=13	=13	=13	=13
4E\	4B/	4g\	4ee/
4A\	4cn/	4a\	4ff#/
4B\	4B/	4f#\	4dd/
4BB\	4B/	4f#\	4dd/
=14	=14	=14	=14
2.E;\	2.B;/	2.g;\	2.ee;/
=:|!	=:|!	=:|!	=:|!
*>D	*>D	*>D	*>D
4A#\	4c#/	4f#\	4ff#/
=15	=15	=15	=15
4B\	4d/	4f#\	4ff#/
4An\	4f#/	4f#\	4dd/
4G\	4B/	4e\	4ee/
4F#\	4A/	4d#\	4ff#/
=16	=16	=16	=16
4E\	2B/	4e\	2gg/
4D\	.	4f#\	.
4C#;\	4A#;/	4g;\	4ee;/
4BB\	4B/	4g\	4ee/
=17	=17	=17	=17
4AA#\	4c#/	4f#\	4ee/
4BB\	4B/	4f#\	4dd/
4GG#\	4B/	4e\	4dd/
4AAn\	4A/	4e\	4cc#/
=18	=18	=18	=18
2.DD;\	2.A;/	2.f#;\	2.dd;/
==	==	==	==
*-	*-	*-	*-
!!!ENC: Craig Stuart Sapp
!!!END: 2004/12/06/
!!chor2scor: -l 2 -s 0.6 -o %b.pmx
